svg/archive.svg

<svg width="24" height="24" viewBox="0 0 24 24" fill="none" xmlns="http://www.w3.org/2000/svg">
<path d="M2 5C2 3.89543 2.89543 3 4 3H20C21.1046 3 22 3.89543 22 5V7C22 7.74708 21.5904 8.39848 20.9835 8.74188C20.9944 8.82638 21 8.91253 21 9V19C21 20.1046 20.1046 21 19 21H5C3.89543 21 3 20.1046 3 19V9C3 8.91253 3.00561 8.82638 3.0165 8.74188C2.40961 8.39848 2 7.74707 2 7V5ZM20 7V5H4V7H20ZM5 9V19H19V9H5ZM8 12C8 11.4477 8.44772 11 9 11H15C15.5523 11 16 11.4477 16 12C16 12.5523 15.5523 13 15 13H9C8.44772 13 8 12.5523 8 12Z" fill="#0D0D0D"/>
</svg>

<svg width="24" height="24" fill="none" xmlns="http://www.w3.org/2000/svg"><path d="M2 5a2 2 0 012-2h16a2 2 0 012 2v2a2 2 0 01-1.017 1.742c.011.084.017.17.017.258v10a2 2 0 01-2 2H5a2 2 0 01-2-2V9c0-.087.006-.174.017-.258A2 2 0 012 7V5zm18 2V5H4v2h16zM5 9v10h14V9H5zm3 3a1 1 0 011-1h6a1 1 0 110 2H9a1 1 0 01-1-1z" fill="#0D0D0D"/></svg>
